src/extras-openmoji/healthcare/E30F.svg

<svg id="emoji" viewBox="0 0 72 72" xmlns="http://www.w3.org/2000/svg">
  <g id="grid">
    <path fill="#b3b3b3" d="M68,4V68H4V4H68m4-4H0V72H72V0Z"/>
    <path fill="none" stroke="#00a5ff" stroke-miterlimit="10" stroke-width="0.1" d="M12.923,10.9583H59.0769A1.9231,1.9231,0,0,1,61,12.8814V59.0352a1.9231,1.9231,0,0,1-1.9231,1.9231H12.9231A1.9231,1.9231,0,0,1,11,59.0352V12.8813A1.923,1.923,0,0,1,12.923,10.9583Z"/>
    <rect x="16" y="4" rx="2.2537" width="40" height="64" fill="none" stroke="#00a5ff" stroke-miterlimit="10" stroke-width="0.1"/>
    <rect x="16" y="4" rx="2.2537" width="40" height="64" transform="translate(72) rotate(90)" fill="none" stroke="#00a5ff" stroke-miterlimit="10" stroke-width="0.1"/>
    <circle cx="36" cy="36" r="29" fill="none" stroke="#00a5ff" stroke-miterlimit="10" stroke-width="0.1"/>
  </g>
  <g id="color">
    <path fill="#92d3f5" d="M47.1761,59.0556l-2.203.5511a36.974,36.974,0,0,1-17.9462,0l-2.203-.5511A4.97,4.97,0,0,1,21.06,54.2341V23.3515a5.6373,5.6373,0,0,1,5.6373-5.6373H45.3027A5.6373,5.6373,0,0,1,50.94,23.3515V54.2341A4.97,4.97,0,0,1,47.1761,59.0556Z"/>
    <path fill="#61b2e4" d="M46.1113,53.9941,36.9376,53.48a14.6754,14.6754,0,0,0-1.6435,0l-9.1737.5137a2.042,2.042,0,0,1-2.1411-2.0552v-28.63a2.4839,2.4839,0,0,1,2.4661-2.5014H45.7863a2.4839,2.4839,0,0,1,2.4661,2.5014v28.63A2.042,2.042,0,0,1,46.1113,53.9941Z"/>
    <path fill="#92d3f5" d="M36.15,10.736a14.4448,14.4448,0,0,0-6.52,1.6474l1.4535,7.9938a5.6334,5.6334,0,0,0,10.1336,0L42.67,12.3834A14.4446,14.4446,0,0,0,36.15,10.736Z"/>
    <circle cx="36.302" cy="56.5601" r="1.1022" fill="#fff"/>
  </g>
  <g id="line">
    <path fill="none" stroke="#000" stroke-miterlimit="10" stroke-width="2" d="M40.7177,21.7966H45.205a2.3348,2.3348,0,0,1,2.3208,2.3516V51.0719a1.9256,1.9256,0,0,1-2.0124,1.9353l-8.6276-.4858a12.8781,12.8781,0,0,0-1.542,0l-8.6276.4858a1.9256,1.9256,0,0,1-2.0124-1.9353V24.1482a2.34,2.34,0,0,1,2.3208-2.3516h4.5567"/>
    <circle cx="36.302" cy="56.5601" r="1.1022" fill="none" stroke="#000" stroke-miterlimit="10"/>
    <path fill="none" stroke="#000" stroke-linecap="round" stroke-linejoin="round" stroke-width="2.0013" d="M36.15,10.736a14.4448,14.4448,0,0,0-6.52,1.6474l1.4535,7.9938a5.6334,5.6334,0,0,0,10.1336,0L42.67,12.3834A14.4446,14.4446,0,0,0,36.15,10.736Z"/>
    <path fill="none" stroke="#000" stroke-linecap="round" stroke-linejoin="round" stroke-width="2.0013" d="M41.6988,17.7142h3.608A5.6376,5.6376,0,0,1,50.94,23.3474V54.236a4.9723,4.9723,0,0,1-3.7637,4.8215l-2.2057.5493a36.9,36.9,0,0,1-17.9412,0l-2.2057-.5493A4.9723,4.9723,0,0,1,21.06,54.236V23.3474a5.6376,5.6376,0,0,1,5.6332-5.6332h3.9031"/>
  </g>
</svg>

<svg viewBox="0 0 72 72" xmlns="http://www.w3.org/2000/svg"><path fill="#b3b3b3" d="M68 4v64H4V4h64m4-4H0v72h72V0z"/><path fill="none" stroke="#00a5ff" stroke-miterlimit="10" stroke-width=".1" d="M12.923 10.958h46.154A1.923 1.923 0 0161 12.881v46.154a1.923 1.923 0 01-1.923 1.923H12.923A1.923 1.923 0 0111 59.035V12.881a1.923 1.923 0 011.923-1.923z"/><rect x="16" y="4" rx="2.254" width="40" height="64" fill="none" stroke="#00a5ff" stroke-miterlimit="10" stroke-width=".1"/><rect x="16" y="4" rx="2.254" width="40" height="64" transform="rotate(90 36 36)" fill="none" stroke="#00a5ff" stroke-miterlimit="10" stroke-width=".1"/><circle cx="36" cy="36" r="29" fill="none" stroke="#00a5ff" stroke-miterlimit="10" stroke-width=".1"/><g stroke-linecap="round" stroke-miterlimit="10" stroke-width="6" stroke="#fff" fill="none" stroke-linejoin="round"><path d="M40.718 21.797h4.487a2.335 2.335 0 012.32 2.351v26.924a1.926 1.926 0 01-2.012 1.935l-8.627-.486a12.878 12.878 0 00-1.542 0l-8.628.486a1.926 1.926 0 01-2.012-1.935V24.148a2.34 2.34 0 012.32-2.351h4.557"/><circle cx="36.302" cy="56.56" r="1.102"/><path d="M36.15 10.736a14.445 14.445 0 00-6.52 1.647l1.454 7.994a5.633 5.633 0 0010.133 0l1.453-7.994a14.445 14.445 0 00-6.52-1.647z"/><path d="M41.699 17.714h3.608a5.638 5.638 0 015.633 5.633v30.889a4.972 4.972 0 01-3.764 4.822l-2.205.549a36.9 36.9 0 01-17.942 0l-2.205-.55a4.972 4.972 0 01-3.764-4.821V23.347a5.638 5.638 0 015.633-5.633h3.903"/></g><path fill="#92d3f5" d="M47.176 59.056l-2.203.55a36.974 36.974 0 01-17.946 0l-2.203-.55a4.97 4.97 0 01-3.764-4.822V23.351a5.637 5.637 0 015.637-5.637h18.606a5.637 5.637 0 015.637 5.638v30.882a4.97 4.97 0 01-3.764 4.822z"/><path fill="#61b2e4" d="M46.111 53.994l-9.173-.514a14.675 14.675 0 00-1.644 0l-9.174.514a2.042 2.042 0 01-2.14-2.056v-28.63a2.484 2.484 0 012.465-2.5h19.341a2.484 2.484 0 012.466 2.5v28.63a2.042 2.042 0 01-2.14 2.056z"/><path fill="#92d3f5" d="M36.15 10.736a14.445 14.445 0 00-6.52 1.647l1.454 7.994a5.633 5.633 0 0010.133 0l1.453-7.994a14.445 14.445 0 00-6.52-1.647z"/><circle cx="36.302" cy="56.56" r="1.102" fill="#fff"/><g fill="none" stroke="#000"><path stroke-miterlimit="10" stroke-width="2" d="M40.718 21.797h4.487a2.335 2.335 0 012.32 2.351v26.924a1.926 1.926 0 01-2.012 1.935l-8.627-.486a12.878 12.878 0 00-1.542 0l-8.628.486a1.926 1.926 0 01-2.012-1.935V24.148a2.34 2.34 0 012.32-2.351h4.557"/><circle cx="36.302" cy="56.56" r="1.102" stroke-miterlimit="10"/><path stroke-linecap="round" stroke-linejoin="round" stroke-width="2.001" d="M36.15 10.736a14.445 14.445 0 00-6.52 1.647l1.454 7.994a5.633 5.633 0 0010.133 0l1.453-7.994a14.445 14.445 0 00-6.52-1.647z"/><path stroke-linecap="round" stroke-linejoin="round" stroke-width="2.001" d="M41.699 17.714h3.608a5.638 5.638 0 015.633 5.633v30.889a4.972 4.972 0 01-3.764 4.822l-2.205.549a36.9 36.9 0 01-17.942 0l-2.205-.55a4.972 4.972 0 01-3.764-4.821V23.347a5.638 5.638 0 015.633-5.633h3.903"/></g></svg>
